assets/icons/pc_specs/hdd.svg

<svg width="32" height="32" viewBox="0 0 32 32" fill="none" xmlns="http://www.w3.org/2000/svg">
<path d="M25 0H5.875C4.84113 0 4 0.841125 4 1.875V30.125C4 31.1589 4.84113 32 5.875 32H25C26.0339 32 26.875 31.1589 26.875 30.125V1.875C26.875 0.841125 26.0339 0 25 0ZM25 30.125H5.875V1.875H25C25.0012 30.7306 25.0063 30.125 25 30.125Z" fill="#2B398F"/>
<path d="M25 0H5.875C4.84113 0 4 0.841125 4 1.875V30.125C4 31.1589 4.84113 32 5.875 32H25C26.0339 32 26.875 31.1589 26.875 30.125V1.875C26.875 0.841125 26.0339 0 25 0ZM25 30.125H5.875V1.875H25C25.0012 30.7306 25.0063 30.125 25 30.125Z" fill="#3749BB"/>
<path d="M22.6134 22.0881C22.4305 21.6114 21.9126 20.6931 19.5665 18.2171C21.6096 16.8536 22.875 14.5439 22.875 12.0306C22.875 7.92957 19.5386 4.59313 15.4375 4.59313C11.3364 4.59313 8 7.92957 8 12.0306C8 15.9141 11.0217 19.2071 14.9515 19.4532C14.9089 20.7442 14.8202 23.7604 15.2615 24.9103C16.0419 26.9433 18.3271 27.951 20.3486 27.1751C22.3801 26.3954 23.3934 24.12 22.6134 22.0881C22.6135 22.0881 22.6135 22.0881 22.6134 22.0881ZM9.875 12.0306C9.875 8.96344 12.3703 6.46813 15.4375 6.46813C18.5047 6.46813 21 8.96344 21 12.0306C21 14.0287 19.9311 15.8551 18.2306 16.8419C17.376 15.9818 16.7272 15.3613 16.7181 15.3526C16.1476 14.8076 15.1952 15.1709 15.1357 15.96C15.1349 15.9708 15.0857 16.6294 15.0342 17.5792C12.0987 17.3744 9.875 14.9055 9.875 12.0306ZM19.6766 25.4247C18.6149 25.8321 17.4195 25.3 17.012 24.2384C16.6597 23.3205 16.8322 19.1265 16.8803 18.1398C17.5984 18.8632 20.5014 21.8179 20.8631 22.7601C21.2715 23.8241 20.741 25.0162 19.6766 25.4247Z" fill="#2B398F"/>
<path d="M22.6134 22.0881C22.4305 21.6114 21.9126 20.6931 19.5665 18.2171C21.6096 16.8536 22.875 14.5439 22.875 12.0306C22.875 7.92957 19.5386 4.59313 15.4375 4.59313C11.3364 4.59313 8 7.92957 8 12.0306C8 15.9141 11.0217 19.2071 14.9515 19.4532C14.9089 20.7442 14.8202 23.7604 15.2615 24.9103C16.0419 26.9433 18.3271 27.951 20.3486 27.1751C22.3801 26.3954 23.3934 24.12 22.6134 22.0881C22.6135 22.0881 22.6135 22.0881 22.6134 22.0881ZM9.875 12.0306C9.875 8.96344 12.3703 6.46813 15.4375 6.46813C18.5047 6.46813 21 8.96344 21 12.0306C21 14.0287 19.9311 15.8551 18.2306 16.8419C17.376 15.9818 16.7272 15.3613 16.7181 15.3526C16.1476 14.8076 15.1952 15.1709 15.1357 15.96C15.1349 15.9708 15.0857 16.6294 15.0342 17.5792C12.0987 17.3744 9.875 14.9055 9.875 12.0306ZM19.6766 25.4247C18.6149 25.8321 17.4195 25.3 17.012 24.2384C16.6597 23.3205 16.8322 19.1265 16.8803 18.1398C17.5984 18.8632 20.5014 21.8179 20.8631 22.7601C21.2715 23.8241 20.741 25.0162 19.6766 25.4247Z" fill="#3749BB"/>
<path d="M15.958 12.81C16.3914 12.5168 16.5021 11.9425 16.2168 11.51C15.772 10.8345 14.6925 11.0077 14.518 11.8475C14.3611 12.6819 15.2688 13.2629 15.958 12.81Z" fill="#2B398F"/>
<path d="M15.958 12.81C16.3914 12.5168 16.5021 11.9425 16.2168 11.51C15.772 10.8345 14.6925 11.0077 14.518 11.8475C14.3611 12.6819 15.2688 13.2629 15.958 12.81Z" fill="#3749BB"/>
<path d="M9.85716 26.3168C9.74054 25.7582 9.18322 25.446 8.66591 25.6031C8.19085 25.7452 7.88647 26.2548 8.04091 26.7725C8.21804 27.316 8.76722 27.538 9.21029 27.3962C9.66566 27.258 9.94804 26.8028 9.85716 26.3168Z" fill="#2B398F"/>
<path d="M9.85716 26.3168C9.74054 25.7582 9.18322 25.446 8.66591 25.6031C8.19085 25.7452 7.88647 26.2548 8.04091 26.7725C8.21804 27.316 8.76722 27.538 9.21029 27.3962C9.66566 27.258 9.94804 26.8028 9.85716 26.3168Z" fill="#3749BB"/>
</svg>

<svg xmlns="http://www.w3.org/2000/svg" fill="none" viewBox="0 0 32 32"><path fill="#2B398F" d="M25 0H5.875C4.8411 0 4 .8411 4 1.875v28.25C4 31.1589 4.8411 32 5.875 32H25c1.0339 0 1.875-.8411 1.875-1.875V1.875C26.875.8411 26.0339 0 25 0Zm0 30.125H5.875V1.875H25c.0012 28.8556.0063 28.25 0 28.25Z"/><path fill="#3749BB" d="M25 0H5.875C4.8411 0 4 .8411 4 1.875v28.25C4 31.1589 4.8411 32 5.875 32H25c1.0339 0 1.875-.8411 1.875-1.875V1.875C26.875.8411 26.0339 0 25 0Zm0 30.125H5.875V1.875H25c.0012 28.8556.0063 28.25 0 28.25Z"/><path fill="#2B398F" d="M22.6134 22.0881c-.1829-.4767-.7008-1.395-3.0469-3.871 2.0431-1.3635 3.3085-3.6732 3.3085-6.1865 0-4.101-3.3364-7.4375-7.4375-7.4375C11.3364 4.5931 8 7.9296 8 12.0306c0 3.8835 3.0217 7.1765 6.9515 7.4226-.0426 1.291-.1313 4.3072.31 5.4571.7804 2.033 3.0656 3.0407 5.0871 2.2648 2.0315-.7797 3.0448-3.0551 2.2648-5.087.0001 0 .0001 0 0 0ZM9.875 12.0306c0-3.0672 2.4953-5.5625 5.5625-5.5625S21 8.9634 21 12.0306a5.5636 5.5636 0 0 1-2.7694 4.8113c-.8546-.8601-1.5034-1.4806-1.5125-1.4893-.5705-.545-1.5229-.1817-1.5824.6074-.0008.0108-.05.6694-.1015 1.6192-2.9355-.2048-5.1592-2.6737-5.1592-5.5486Zm9.8016 13.3941c-1.0617.4074-2.2571-.1247-2.6646-1.1863-.3523-.9179-.1798-5.1119-.1317-6.0986.7181.7234 3.6211 3.6781 3.9828 4.6203.4084 1.064-.1221 2.2561-1.1865 2.6646Z"/><path fill="#3749BB" d="M22.6134 22.0881c-.1829-.4767-.7008-1.395-3.0469-3.871 2.0431-1.3635 3.3085-3.6732 3.3085-6.1865 0-4.101-3.3364-7.4375-7.4375-7.4375C11.3364 4.5931 8 7.9296 8 12.0306c0 3.8835 3.0217 7.1765 6.9515 7.4226-.0426 1.291-.1313 4.3072.31 5.4571.7804 2.033 3.0656 3.0407 5.0871 2.2648 2.0315-.7797 3.0448-3.0551 2.2648-5.087.0001 0 .0001 0 0 0ZM9.875 12.0306c0-3.0672 2.4953-5.5625 5.5625-5.5625S21 8.9634 21 12.0306a5.5636 5.5636 0 0 1-2.7694 4.8113c-.8546-.8601-1.5034-1.4806-1.5125-1.4893-.5705-.545-1.5229-.1817-1.5824.6074-.0008.0108-.05.6694-.1015 1.6192-2.9355-.2048-5.1592-2.6737-5.1592-5.5486Zm9.8016 13.3941c-1.0617.4074-2.2571-.1247-2.6646-1.1863-.3523-.9179-.1798-5.1119-.1317-6.0986.7181.7234 3.6211 3.6781 3.9828 4.6203.4084 1.064-.1221 2.2561-1.1865 2.6646Z"/><path fill="#2B398F" d="M15.958 12.81c.4334-.2932.5441-.8675.2588-1.3-.4448-.6755-1.5243-.5023-1.6988.3375-.1569.8344.7508 1.4154 1.44.9625Z"/><path fill="#3749BB" d="M15.958 12.81c.4334-.2932.5441-.8675.2588-1.3-.4448-.6755-1.5243-.5023-1.6988.3375-.1569.8344.7508 1.4154 1.44.9625Z"/><path fill="#2B398F" d="M9.8572 26.3168c-.1167-.5586-.674-.8708-1.1913-.7137a.9374.9374 0 0 0-.625 1.1694c.1771.5435.7263.7655 1.1694.6237.4554-.1382.7377-.5934.6469-1.0794Z"/><path fill="#3749BB" d="M9.8572 26.3168c-.1167-.5586-.674-.8708-1.1913-.7137a.9374.9374 0 0 0-.625 1.1694c.1771.5435.7263.7655 1.1694.6237.4554-.1382.7377-.5934.6469-1.0794Z"/></svg>
